src/android-playstore.svg

<?xml version="1.0" encoding="utf-8"?>
<!-- Generated by IcoMoon.io -->
<!DOCTYPE svg PUBLIC "-//W3C//DTD SVG 1.1//EN" "http://www.w3.org/Graphics/SVG/1.1/DTD/svg11.dtd">
<svg version="1.1" xmlns="http://www.w3.org/2000/svg" xmlns:xlink="http://www.w3.org/1999/xlink" width="512" height="512" viewBox="0 0 512 512">
<path fill="#000000" d="M464 152h-104c0-57-46.562-103.859-104-103.859s-104 46.859-104 103.859h-104c18.688 216 13 312 13 312h389.999c-0.001 0-5.688-98 13.001-312zM256 74.105c43.008 0 77.999 34.895 77.999 77.895h-155.999c0-43 34.991-77.895 78-77.895zM204 397.64v-168.773l142.999 84.387-142.999 84.386z"></path>
</svg>

<?xml version="1.0" encoding="utf-8"?>
<!-- Generator: Adobe Illustrator 16.2.1, SVG Export Plug-In . SVG Version: 6.00 Build 0)  -->
<!DOCTYPE svg PUBLIC "-//W3C//DTD SVG 1.1//EN" "http://www.w3.org/Graphics/SVG/1.1/DTD/svg11.dtd">
<svg version="1.1" id="Layer_1" xmlns="http://www.w3.org/2000/svg" xmlns:xlink="http://www.w3.org/1999/xlink" x="0px" y="0px"
	 width="512px" height="512px" viewBox="0 0 512 512" enable-background="new 0 0 512 512" xml:space="preserve">
<g>
	<path d="M464,152H360c0-57-46.562-103.859-104-103.859C198.562,48.141,152,95,152,152H48C66.688,368,61,464,61,464h389.999
		C450.998,464,445.311,366,464,152z M256,74.105c43.008,0,77.999,34.895,77.999,77.895H178C178,109,212.991,74.105,256,74.105z
		 M204,397.64V228.867l142.999,84.387L204,397.64z"/>
</g>
</svg>
